X:1
T:Te lucis ante terminum - Gastorius
T:James Gibb editions
%%score { 1 | 2 } 3
L:1/8
Q:1/4=88
M:4/4
K:Ab
V:1 treble nm="Soprano I" snm="S"
V:2 treble 
V:3 treble nm="Alto" snm="A"
V:1
"^Te lucis ante terminum""^Severus Gastorius\n (1647-82)""^adagio" E2 | A2 B2 c2 f2 | %2
w: Te,|lu- cis an- te|
w: Pro-|cul re- ce- dant|
w: Prae-|sta, Pa- ter pi-|
w: De-|o Pa- tri sit|
 e2 d2"^," c2 f2 | e2 c2 d2 c2 | B2 B2"^," A2 E2 |[M:4/4] A2 B2 c2 f2 | e2 d2"^," c2 e2 | %7
w: ter- mi- num, re-|rum Cre- a- tor,|po- sci- mus, ut|pro tu- a cle-|men- ti- a sis|
w: so- mni- a et|no- cti- um phan-|ta- sma- ta: ho-|stem quae no- strum|com- pri- me, ne|
w: is- si- me, Pa-|tri- que com- par|U- ni- ce, cum|Spi- ri- tu Pa-|ra- cli- to re-|
w: glo- ri- a, et|Fi- li- o, quia|mor- tu- is sur-|re- xit, ac Pa-|ra- cli- to, in|
 f2 e2 d2 c2 | B2 B2 !fermata!c4 | d4 !fermata!c4 |] %10
w: prae- su- let cu-|sto- di- a.||
w: pol- lu- an- tur|cor- po- ra.||
w: gnans per o- mne|sae- cu- lum.|A- men.|
w: sem- pi- ter- na|sae- cu- la.|A- men.|
V:2
 E2 | E2 G2 A2 A2 | G2 (AB)"^," A2 A2 | A2 A2 A2 A2 | A2 G2"^," E2 E2 |[M:4/4] E2 G2 A2 A2 | %6
w: Te,|lu- cis an- te|ter- mi\- * num, re-|rum Cre- a- tor,|po- sci- mus, ut|pro tu- a cle-|
w: Pro-|cul re- ce- dant|so- mni\- * a et|no- cti- um phan-|ta- sma- ta: ho-|stem quae no- strum|
w: Prae-|sta, Pa- ter pi-|is- si\- * me, Pa-|tri- que com- par|U- ni- ce, cum|Spi- ri- tu Pa-|
w: De-|o Pa- tri sit|glo- ri\- * a, et|Fi- li- o, quia|mor- tu- is sur-|re- xit, ac Pa-|
 G2 (AB) A2 A2 | A2 G2 (AB) A2 | A2 G2 !fermata!A4 | F4 !fermata!E4 |] %10
w: men- ti\- * a sis|prae- su- let * cu-|sto- di- a.||
w: com- pri\- * me, ne|pol- lu- an\- * tur|cor- po- ra.||
w: ra- cli\- * to re-|gnans per o\- * mne|sae- cu- lum.|A- men.|
w: ra- cli\- * to, in|sem- pi- ter\- * na|sae- cu- la.|A- men.|
V:3
 E2 | C2 E2 A2 D2 | E2 (FG)"^," A2 D2 | C2 (AG) F2 E2 | D2 E2"^," C2 E2 |[M:4/4] C2 E2 A2 D2 | %6
w: Te,|lu- cis an- te|ter- mi\- * num, re-|rum Cre\- * a- tor,|po- sci- mus, ut|pro tu- a cle-|
w: Pro-|cul re- ce- dant|so- mni\- * a et|no- cti\- * um phan-|ta- sma- ta: ho-|stem quae no- strum|
w: Prae-|sta, Pa- ter pi-|is- si\- * me, Pa-|tri- que * com- par|U- ni- ce, cum|Spi- ri- tu Pa-|
w: De-|o Pa- tri sit|glo- ri\- * a, et|Fi- li\- * o, quia|mor- tu- is sur-|re- xit, ac Pa-|
 E2 (FG) A2 C2 | D2 E2 (FG) A2 | D2 E2 A,4 | D4 A,4 |] %10
w: men- ti\- * a sis|prae- su- let * cu-|sto- di- a.||
w: com- pri\- * me, ne|pol- lu- an\- * tur|cor- po- ra.||
w: ra- cli\- * to re-|gnans per o\- * mne|sae- cu- lum.|A- men.|
w: ra- cli\- * to, in|sem- pi- ter\- * na|sae- cu- la.|A- men.|

